icons/linear-new-people-alert.svg

<svg xmlns="http://www.w3.org/2000/svg" width="32px" height="32px" viewBox="0 0 32 32" version="1.1">
    <title>linear-new-people-alert</title>
    <g id="linear-new-people-alert" stroke-width="1" fill-rule="evenodd">
        <path d="M23,16 C26.8659932,16 30,19.1340068 30,23 C30,26.8659932 26.8659932,30 23,30 C19.1340068,30 16,26.8659932 16,23 C16,19.1340068 19.1340068,16 23,16 Z M15.5162589,17.9989396 C15.1028422,18.616363 14.7638058,19.2877953 14.5119702,20.0004159 L9,20 C7.34314575,20 6,21.3431458 6,23 L6,28 C6,28.5522847 5.55228475,29 5,29 C4.44771525,29 4,28.5522847 4,28 L4,23 C4,20.2385763 6.23857625,18 9,18 L15.5162589,17.9989396 Z M23,18 C20.2385763,18 18,20.2385763 18,23 C18,25.7614237 20.2385763,28 23,28 C25.7614237,28 28,25.7614237 28,23 C28,20.2385763 25.7614237,18 23,18 Z M23,24.5 C23.5522847,24.5 24,24.9477153 24,25.5 C24,26.0522847 23.5522847,26.5 23,26.5 C22.4477153,26.5 22,26.0522847 22,25.5 C22,24.9477153 22.4477153,24.5 23,24.5 Z M23,19.5 C23.5522847,19.5 24,19.9477153 24,20.5 L24,22.5 C24,23.0522847 23.5522847,23.5 23,23.5 C22.4477153,23.5 22,23.0522847 22,22.5 L22,20.5 C22,19.9477153 22.4477153,19.5 23,19.5 Z M16,2 C19.8659932,2 23,5.13400675 23,9 C23,12.8659932 19.8659932,16 16,16 C12.1340068,16 9,12.8659932 9,9 C9,5.13400675 12.1340068,2 16,2 Z M16,4 C13.2385763,4 11,6.23857625 11,9 C11,11.7614237 13.2385763,14 16,14 C18.7614237,14 21,11.7614237 21,9 C21,6.23857625 18.7614237,4 16,4 Z" id="&#24418;&#29366;" fill-rule="nonzero" />
    </g>
</svg>

<svg xmlns="http://www.w3.org/2000/svg" viewBox="0 0 32 32"><path fill="currentColor" d="M23 16a7 7 0 1 1 0 14 7 7 0 0 1 0-14m-7.484 1.999A8.968 8.968 0 0 0 14.512 20H9a3 3 0 0 0-3 3v5a1 1 0 0 1-2 0v-5a5 5 0 0 1 5-5zM23 18a5 5 0 1 0 0 10 5 5 0 0 0 0-10m0 6.5a1 1 0 1 1 0 2 1 1 0 0 1 0-2m0-5a1 1 0 0 1 1 1v2a1 1 0 0 1-2 0v-2a1 1 0 0 1 1-1M16 2a7 7 0 1 1 0 14 7 7 0 0 1 0-14m0 2a5 5 0 1 0 0 10 5 5 0 0 0 0-10"/></svg>
